X:660
M:C
L:1/8
K:B_
d|f>gf>d B>cd>B|(3ege (3dfd c>Bc>d|f>gf>d B>cd>c|B>GF>D B,/B,/B B>d|
f>gf>d B>cd>B|(3ege (3dfd c>Bc>d|B>Fd>B f>db>g|f>dc>d B/B/B ~B||

